client/public/img/game/shared/particles/casings/casing_762x51mm.svg

<?xml version="1.0" encoding="UTF-8" standalone="no"?>
<svg
   width="13"
   height="46"
   viewBox="0 0 13 46"
   fill="none"
   version="1.1"
   id="svg4"
   xmlns="http://www.w3.org/2000/svg"
   xmlns:svg="http://www.w3.org/2000/svg">
  <defs
     id="defs4" />
  <path
     d="M1.0332 41.4091L1.21241 11.5992L2.38126 8.38244L2.38126 1.96461H9.65249V8.38244L10.8213 11.5992L11.0004 41.4091L10.7907 42.3101H1.24301L1.0332 41.4091Z"
     fill="#B57921"
     id="path1" />
  <path
     d="M1.01172 43.4737V44.2355L1.39341 44.6172H10.6423L11.024 44.2355V43.4737H1.01172Z"
     fill="#B57921"
     id="path2" />
  <rect
     x="1.68848"
     y="43.4746"
     width="1.16423"
     height="8.65798"
     transform="rotate(-90 1.68848 43.4746)"
     fill="#97651C"
     stroke="#563A10"
     stroke-width="0.999999"
     stroke-miterlimit="3.99393"
     id="rect2" />
  <path
     d="M1.01172 43.4737V44.2355L1.39341 44.6172H10.6423L11.024 44.2355V43.4737H10.3468V42.3095L10.7917 42.3094L11.0014 41.4085L10.8223 11.5986L9.65347 8.38182V1.964H2.38224L2.38224 8.38182L1.21339 11.5986L1.03418 41.4085L1.24399 42.3094L1.68884 42.3095V43.4737H1.01172Z"
     stroke="#563A10"
     stroke-width="2"
     stroke-miterlimit="3.99393"
     id="path3" />
  <path
     d="M1.21387 11.5986H10.8228M2.38271 8.38183H9.65395"
     stroke="#563A10"
     stroke-width="2"
     stroke-miterlimit="3.99393"
     id="path4" />
</svg>

<svg xmlns="http://www.w3.org/2000/svg" width="13" height="46" fill="none"><path fill="#B57921" d="m1.033 41.41.18-29.81L2.38 8.381V1.965h7.271v6.417l1.17 3.217L11 41.41l-.21.901H1.244zM1.012 43.474v.762l.381.381h9.25l.381-.381v-.762z"/><path fill="#97651C" stroke="#563A10" stroke-miterlimit="3.994" d="M1.689 43.475v-1.164h8.658v1.164z"/><path stroke="#563A10" stroke-miterlimit="3.994" stroke-width="2" d="M1.012 43.474v.762l.381.381h9.25l.381-.381v-.762h-.677V42.31h.445l.21-.902-.18-29.81-1.169-3.216V1.964h-7.27v6.418l-1.17 3.217-.179 29.81.21.9h.445v1.165zM1.214 11.599h9.609m-8.44-3.217h7.271"/></svg>
